src/images/header/ancient-pavilion.svg

<svg fill="none" height="32" viewBox="0 0 32 32" width="32" xmlns="http://www.w3.org/2000/svg" xmlns:xlink="http://www.w3.org/1999/xlink"><clipPath id="a"><path d="m0 0h32v32h-32z"/></clipPath><g clip-path="url(#a)"><path d="m16.7402 2.66669c1.0178 2.80017 3.0162 5.16174 5.6442 6.67013 2.628 1.50838 5.7177 2.06718 8.7267 1.57828-.1156 1.3353-.6642 2.6003-1.5667 3.612s-2.112 1.7177-3.4537 2.0161v9.9817l2.8828.0014v2.8071h-25.94552v-2.8071h2.88284v-9.9831c-1.34177-.2985-2.55136-1.0046-3.45405-2.0162-.90269-1.0117-1.45174-2.2765-1.567854-3.6119 3.009274.4897 6.099534-.0686 8.728134-1.57672 2.62865-1.50817 4.62755-3.86983 5.64565-6.67029h1.4775zm6.4676 14.03371h-14.41414v9.8245h14.41414z" fill="#ffd874"/></g></svg>

<svg width="32" height="32" viewBox="0 0 32 32" fill="none" xmlns="http://www.w3.org/2000/svg">
<g id="ancient-pavilion-svgrepo-com 2" clip-path="url(#clip0_24_1313)">
<g id="Group">
<path id="Vector" d="M16.7402 2.66669C17.758 5.46686 19.7564 7.82843 22.3844 9.33682C25.0124 10.8452 28.1021 11.404 31.1111 10.9151C30.9955 12.2504 30.4469 13.5154 29.5444 14.5271C28.6419 15.5388 27.4324 16.2448 26.0907 16.5432V26.5249L28.9735 26.5263V29.3334H3.02798V26.5263H5.91082V16.5432C4.56905 16.2447 3.35946 15.5386 2.45677 14.527C1.55408 13.5153 1.00503 12.2505 0.888916 10.9151C3.89819 11.4048 6.98845 10.8465 9.61705 9.33838C12.2457 7.83021 14.2446 5.46855 15.2627 2.66809H16.7402V2.66669ZM23.2078 16.7004H8.79366V26.5249H23.2078V16.7004Z" fill="#FFD874"/>
</g>
</g>
<defs>
<clipPath id="clip0_24_1313">
<rect width="32" height="32" fill="white"/>
</clipPath>
</defs>
</svg>
